X:2
M:C
L:1/8
K:C Minor
|:G|c>de>c g>ce>c|B>df>b f/e/d/c/ B>d|1 c>de>c g>ce>c|d>B g/f/e/d/ e<cc:|2
e>cd>=B c/B/c/d/ ed/c/|B/G/F/E/ D/E/F/G/ E<CC||

